build/static/img/icons/phone_big.svg

<svg width="58" height="58" viewBox="0 0 58 58" fill="none" xmlns="http://www.w3.org/2000/svg">
<circle cx="29" cy="29" r="29" fill="#3257A4"/>
<mask id="mask0_472_565" style="mask-type:alpha" maskUnits="userSpaceOnUse" x="0" y="0" width="58" height="58">
<circle cx="29" cy="29" r="28" fill="#3257A4" stroke="#3257A4" stroke-width="2"/>
</mask>
<g mask="url(#mask0_472_565)">
<g filter="url(#filter0_f_472_565)">
<circle cx="39" cy="39" r="19" fill="#497AE2"/>
<circle cx="39" cy="39" r="18" stroke="#3257A4" stroke-opacity="0.5" stroke-width="2"/>
</g>
<g filter="url(#filter1_f_472_565)">
<circle cx="10" cy="11" r="19" fill="#497AE2"/>
<circle cx="10" cy="11" r="18" stroke="#3257A4" stroke-opacity="0.5" stroke-width="2"/>
</g>
</g>
<g clip-path="url(#clip0_472_565)">
<path d="M34.7253 32.5523C34.0064 31.8428 33.109 31.8428 32.3948 32.5523C31.8499 33.0925 31.3051 33.6326 30.7694 34.1819C30.6229 34.333 30.4993 34.365 30.3207 34.2643C29.9681 34.0721 29.5927 33.9164 29.2539 33.7059C27.6743 32.7125 26.3511 31.4354 25.179 29.998C24.5975 29.2839 24.0801 28.5194 23.7184 27.6588C23.6451 27.4849 23.6589 27.3704 23.8008 27.2285C24.3457 26.7021 24.8768 26.1619 25.4125 25.6218C26.1588 24.8711 26.1588 23.9922 25.4079 23.2369C24.9821 22.8066 24.5563 22.3854 24.1305 21.9551C23.6909 21.5157 23.256 21.0716 22.8118 20.6368C22.093 19.9364 21.1956 19.9364 20.4814 20.6413C19.9319 21.1815 19.4054 21.7354 18.8468 22.2664C18.3294 22.7562 18.0684 23.3559 18.0135 24.0562C17.9265 25.1961 18.2058 26.2718 18.5996 27.3201C19.4054 29.4899 20.6324 31.417 22.1205 33.184C24.1305 35.5735 26.5296 37.4641 29.3363 38.8282C30.6 39.4416 31.9094 39.9131 33.3334 39.9909C34.3132 40.0458 35.1648 39.7987 35.847 39.0342C36.314 38.5123 36.8406 38.0363 37.335 37.5373C38.0676 36.7957 38.0722 35.8985 37.3442 35.1661C36.4743 34.2918 35.5998 33.422 34.7253 32.5523Z" fill="white"/>
<path d="M33.8509 28.9039L35.5404 28.6155C35.2748 27.0637 34.5422 25.6584 33.4296 24.5414C32.2529 23.365 30.7649 22.6234 29.1258 22.3945L28.8877 24.0928C30.156 24.2714 31.3098 24.8436 32.2209 25.7545C33.0817 26.6151 33.6448 27.7046 33.8509 28.9039Z" fill="white"/>
<path d="M36.4925 21.5614C34.542 19.6113 32.0741 18.3799 29.3499 18L29.1118 19.6983C31.4652 20.0279 33.5988 21.0945 35.2837 22.7744C36.8816 24.372 37.9301 26.3908 38.3102 28.6109L39.9996 28.3225C39.5555 25.7499 38.3422 23.4153 36.4925 21.5614Z" fill="white"/>
</g>
<defs>
<filter id="filter0_f_472_565" x="0" y="0" width="78" height="78" filterUnits="userSpaceOnUse" color-interpolation-filters="sRGB">
<feFlood flood-opacity="0" result="BackgroundImageFix"/>
<feBlend mode="normal" in="SourceGraphic" in2="BackgroundImageFix" result="shape"/>
<feGaussianBlur stdDeviation="10" result="effect1_foregroundBlur_472_565"/>
</filter>
<filter id="filter1_f_472_565" x="-24" y="-23" width="68" height="68" filterUnits="userSpaceOnUse" color-interpolation-filters="sRGB">
<feFlood flood-opacity="0" result="BackgroundImageFix"/>
<feBlend mode="normal" in="SourceGraphic" in2="BackgroundImageFix" result="shape"/>
<feGaussianBlur stdDeviation="7.5" result="effect1_foregroundBlur_472_565"/>
</filter>
<clipPath id="clip0_472_565">
<rect width="22" height="22" fill="white" transform="translate(18 18)"/>
</clipPath>
</defs>
</svg>

<svg width="58" height="58" fill="none" xmlns="http://www.w3.org/2000/svg"><circle cx="29" cy="29" r="29" fill="#3257A4"/><mask id="a" style="mask-type:alpha" maskUnits="userSpaceOnUse" x="0" y="0" width="58" height="58"><circle cx="29" cy="29" r="28" fill="#3257A4" stroke="#3257A4" stroke-width="2"/></mask><g mask="url(#a)"><g filter="url(#filter0_f_472_565)"><circle cx="39" cy="39" r="19" fill="#497AE2"/><circle cx="39" cy="39" r="18" stroke="#3257A4" stroke-opacity=".5" stroke-width="2"/></g><g filter="url(#filter1_f_472_565)"><circle cx="10" cy="11" r="19" fill="#497AE2"/><circle cx="10" cy="11" r="18" stroke="#3257A4" stroke-opacity=".5" stroke-width="2"/></g></g><g clip-path="url(#clip0_472_565)" fill="#fff"><path d="M34.725 32.552c-.719-.71-1.616-.71-2.33 0-.545.54-1.09 1.08-1.626 1.63-.146.151-.27.183-.448.082-.353-.192-.728-.348-1.067-.558-1.58-.994-2.903-2.27-4.075-3.708-.581-.714-1.099-1.479-1.46-2.34-.074-.173-.06-.288.082-.43.545-.526 1.076-1.066 1.612-1.606.746-.75.746-1.63-.005-2.385-.426-.43-.852-.852-1.277-1.282-.44-.44-.875-.883-1.32-1.318-.718-.7-1.615-.7-2.33.004-.55.54-1.076 1.094-1.634 1.625-.518.49-.779 1.09-.834 1.79-.087 1.14.193 2.216.587 3.264.805 2.17 2.032 4.097 3.52 5.864 2.01 2.39 4.41 4.28 7.216 5.644 1.264.614 2.573 1.085 3.997 1.163.98.055 1.832-.192 2.514-.957.467-.522.994-.998 1.488-1.497.733-.741.737-1.639.01-2.37-.87-.875-1.745-1.745-2.62-2.615zm-.875-3.648l1.69-.288a7.55 7.55 0 00-2.11-4.075 7.511 7.511 0 00-4.304-2.146l-.238 1.698a5.828 5.828 0 013.333 1.662c.86.86 1.424 1.95 1.63 3.149zm2.642-7.343A12.458 12.458 0 0029.35 18l-.238 1.698a10.803 10.803 0 016.172 3.076 10.791 10.791 0 013.026 5.837l1.69-.288a12.545 12.545 0 00-3.508-6.762z"/></g><defs><filter id="filter0_f_472_565" x="0" y="0" width="78" height="78" filterUnits="userSpaceOnUse" color-interpolation-filters="sRGB"><feFlood flood-opacity="0" result="BackgroundImageFix"/><feBlend in="SourceGraphic" in2="BackgroundImageFix" result="shape"/><feGaussianBlur stdDeviation="10" result="effect1_foregroundBlur_472_565"/></filter><filter id="filter1_f_472_565" x="-24" y="-23" width="68" height="68" filterUnits="userSpaceOnUse" color-interpolation-filters="sRGB"><feFlood flood-opacity="0" result="BackgroundImageFix"/><feBlend in="SourceGraphic" in2="BackgroundImageFix" result="shape"/><feGaussianBlur stdDeviation="7.5" result="effect1_foregroundBlur_472_565"/></filter><clipPath id="clip0_472_565"><path fill="#fff" transform="translate(18 18)" d="M0 0h22v22H0z"/></clipPath></defs></svg>
